X: 27891
T: Mountain Home, The
R: reel
M: 4/4
K: Gmajor
|:BcdB GFGB|A=FcF dFcF|BcdB GFGB|AGFG A ~G2 A|
BcdB GFGB|A=FcF dFcF|BcdB GFGB|1 AGFA ~G2 GA:|2 AGFA ~G2 Bc||
|:dg{a}gf gbag|fd^cd fd=cA|dggf gbag|fdcA ~G2 AF|
Gg{a}gf gbag|fdcd =f2 fg|ag^fa gbag|1 fdcA G2 Bc:|2 fdcA G4||

